X:13
T:Capt' Jolly. JJo8.013
%%VWML:JohnsonVol8-2184-p7-0
F:http://www.vwml.org/record/JohnsonVol8/2184/p7
Z:Transcribed by Simon Furey and Lewis Jones
Z:vmp.Simon Wilson 2013 www.village-music-project.org.uk
Z:Dance added by John Chambers 2017
M:6/8
L:1/8
%Q:3/8=120
K:Bb
|: f3B2A | Bcde2g | fedc2B | ABcF3 | f3B2A | Bcde2g | fed cBA | B3B,3 :|
|: b3ag^f | gabc3 | BAg =fdB | ecA Bdf | gab fdB | e3g3 | fed cBA | B3B,3 :|
W: Cast off and hands 4 round at Bottom
W:.| Cast up and hands 4 round at
W:top :|. Cross over and half figure :||.
W:Right hands and Left :||:
W:
T:Nelson's Maggot. JJo8.014
B:J.Johnson Choice Collection Vol 8 1758
Z:vmp.Simon Wilson 2013 www.village-music-project.org.uk
Z:Dance added by John Chambers 2017
M:C|
L:1/8
%Q:1/2=80
K:F
|: f/g/ |\
afdg c2B2 | Af2A BG2f/g/ |\
afdg c2B2 | AfcA F3 :|\
|: G/F/ |\
EGcG A2Ac | =BcdA {c}=B2AG |
g=Bca gfed | egG=B c3c |\
Acfc d2_Bd | =Bdgd e2ce |\
cegb aefc | d_BAG F3 :|
W: Cast off and cross over below the 3d
W:Cu. .| Cast up and cross over to the
W:top :| Set and hands 3 with the 2d Wo.
W::||. the same with the 2d Man :||: Cross over
W:and turn .:||: Right hands and Left .:||:.
W:
